static/assets/mobilepay.svg

<svg fill="none" height="90" viewBox="0 0 90 90" width="90" xmlns="http://www.w3.org/2000/svg" xmlns:xlink="http://www.w3.org/1999/xlink"><linearGradient id="a"><stop offset="0" stop-color="#504678"/><stop offset=".302" stop-color="#504678" stop-opacity=".616"/><stop offset=".608" stop-color="#504678" stop-opacity=".283"/><stop offset=".852" stop-color="#504678" stop-opacity=".076"/><stop offset="1" stop-color="#504678" stop-opacity="0"/></linearGradient><linearGradient id="b" gradientUnits="userSpaceOnUse" x1="47.1101" x2="46.4638" xlink:href="#a" y1="28.8881" y2="21.3887"/><linearGradient id="c" gradientUnits="userSpaceOnUse" x1="49.3798" x2="49.7852" xlink:href="#a" y1="34.2986" y2="42.7021"/><linearGradient id="d" gradientUnits="userSpaceOnUse" x1="41.693" x2="49.5444" y1="35.0127" y2="29.6898"><stop offset="0" stop-color="#504678"/><stop offset=".179" stop-color="#504678" stop-opacity=".872"/><stop offset=".526" stop-color="#504678" stop-opacity=".536"/><stop offset="1" stop-color="#504678" stop-opacity="0"/></linearGradient><linearGradient id="e" gradientUnits="userSpaceOnUse" x1="48.4053" x2="48.0544" y1="29.7699" y2="26.9792"><stop offset="0" stop-color="#504678"/><stop offset=".643" stop-color="#504678" stop-opacity=".332"/><stop offset="1" stop-color="#504678" stop-opacity="0"/></linearGradient><rect fill="#fff" height="88" rx="9" width="88" x="1" y="1"/><path d="m41.102 52.078c-1.1593.0001-2.2046-.7018-2.6488-1.7786l-9.8891-24.0053c-.605-1.4688.0886-3.1527 1.5492-3.7612l10.3578-4.3137c.7014-.2922 1.4896-.2923 2.191-.0001.7014.2921 1.2587.8525 1.5491 1.5579l9.8891 24.0063c.604 1.4684-.0894 3.1512-1.5492 3.7598l-10.3578 4.3156c-.3459.1445-.7167.219-1.0913.2193zm.4648-32.5292c-.1736.0002-.3454.035-.5056.1022l-10.3583 4.3136c-.3238.1349-.581.3936-.7151.7192s-.134.6914.0002 1.017l9.8891 24.0067c.2799.6774 1.0522.9992 1.7266.7194l10.3578-4.3166c.3238-.1349.581-.3936.7151-.7192.1341-.3255.134-.6914-.0002-1.0169l-9.8891-24.0043c-.2047-.4964-.6861-.8202-1.2205-.8211z" fill="#5a78ff"/><path d="m44.8642 21.36-1.424.5931 3.9154 9.5051 1.424-.5931z" fill="url(#b)" opacity=".7"/><path d="m52.0184 42.78 1.424-.5931-4.4322-10.7594-1.424.5931z" fill="url(#c)" opacity=".7"/><path d="m50.2202 35.6481c-2.9623 1.2352-5.4356 2.9377-7.0551 4.99l-4.1754-10.14c1.9046-2.2251 4.3288-3.9397 7.0551-4.99 2.9623-1.2352 5.955-1.833 8.4977-1.4847l4.1763 10.1396c-2.9115-.2205-5.8318.2898-8.4986 1.4851z" fill="#5a78ff"/><g opacity=".4"><path d="m50.2202 35.6481c-2.9623 1.2352-5.4356 2.9377-7.0551 4.99l-4.1754-10.14c1.9046-2.2251 4.3288-3.9397 7.0551-4.99 2.9623-1.2352 5.955-1.833 8.4977-1.4847l4.1763 10.1396c-2.9115-.2205-5.8318.2898-8.4986 1.4851z" fill="url(#d)" opacity=".9"/><path d="m50.2202 35.6481c-2.9623 1.2352-5.4356 2.9377-7.0551 4.99l-4.1754-10.14c1.9046-2.2251 4.3288-3.9397 7.0551-4.99 2.9623-1.2352 5.955-1.833 8.4977-1.4847l4.1763 10.1396c-2.9115-.2205-5.8318.2898-8.4986 1.4851z" fill="url(#e)" opacity=".7"/></g><path d="m51.5808 38.7394c-3.2065 0-6.1417.623-8.4166 1.8947v-10.2527c2.6063-1.3224 5.4983-1.9735 8.4166-1.8947 3.2064 0 6.1991.5978 8.416 1.8972v10.2527c-2.6057-1.3235-5.4977-1.9755-8.416-1.8972z" fill="#5a78ff"/><path d="m12.6218 68.832 2.5943-8.2458c.0272-.1143.1243-.198.2407-.2075h1.302c.1168.0164.215.0962.2555.2075l2.0194 5.2024c.0393.1037.1425.1136.1769 0l2.0047-5.2024c.0405-.1113.1387-.1911.2555-.2075h1.302c.1164.0095.2135.0932.2407.2075l2.5402 8.2458c.0299.0635.024.1381-.0154.1961-.0395.0579-.1065.0905-.1762.0855h-1.5329c-.1098.005-.2072-.07-.231-.1779l-1.641-5.3556c-.0246-.1037-.1425-.1037-.1769 0l-1.9653 5.3161c-.0335.128-.1485.2173-.2801.2174h-.8893c-.1305.0026-.2442-.0888-.2703-.2174l-2.0046-5.3161c-.0393-.1037-.1425-.1037-.1671 0l-1.6852 5.3556c-.0262.1106-.1281.1858-.2408.1779h-1.474c-.069.0044-.1351-.0291-.1727-.0874-.0377-.0583-.0412-.1326-.0091-.1942zm13.4429-2.9397c-.0279-1.4047.7921-2.6868 2.0748-3.244 1.2828-.5572 2.7732-.2786 3.7712.7048s1.305 2.4762.777 3.7771c-.5281 1.3008-1.7863 2.1511-3.1836 2.1514-.9094.0311-1.7917-.3136-2.4415-.954-.6499-.6404-1.0105-1.5204-.9979-2.4353zm5.1099 0c-.0535-.9245-.8333-1.6357-1.7535-1.5994-.9203.0363-1.6423.8067-1.6237 1.7326s.771 1.6663 1.6919 1.6652c.461-.0129.8978-.2098 1.2141-.5473.3162-.3374.4858-.7876.4712-1.2511zm4.8053 2.6976c-.1278-.1038-.2408-.0642-.2408.1136v.1828c.0001.13-.1018.2368-.2309.2421h-1.1989c-.1308-.005-.2357-.1105-.2407-.2421v-8.2606c.005-.1316.1099-.237.2407-.2421h1.2628c.1291.0053.231.1121.2309.2421v2.3319c0 .168.113.2174.2948.089.4836-.3643 1.0712-.5618 1.6755-.5633 1.7491 0 3.0905 1.4822 3.0905 3.3893.0412.8717-.2694 1.7233-.8615 2.3614-.592.6382-1.4154 1.0088-2.2831 1.0278-.6422-.0015-1.2613-.2407-1.7393-.6719zm3.1445-2.6976c.0484-.6363-.2618-1.2462-.8032-1.5792-.5414-.3331-1.2227-.3331-1.7641 0-.5414.333-.8516.9429-.8032 1.5792-.0173.4611.1505.9098.4656 1.2452s.7511.5294 1.2098.5384c.9561-.0243 1.7122-.8222 1.6902-1.7836zm2.7957-4.9109c0-.5457.44-.9881.9827-.9881s.9827.4424.9827.9881-.44.9881-.9827.9881-.9827-.4424-.9827-.9881zm.0885 7.9049v-5.9781c-.0001-.1299.1018-.2368.2309-.2421h1.2627c.1309.0051.2357.1106.2408.2421v5.9781c-.0051.1316-.1099.2371-.2408.2421h-1.2627c-.1291-.0053-.231-.1121-.2309-.2421zm3.1593-1.9762v-6.2844c-.0001-.13.1018-.2368.2309-.2421h1.2627c.1308.0051.2357.1105.2408.2421v6.3437c0 .4101.1769.6818.624.6818.1329 0 .2407.1084.2407.2421v1.0523c-.0052.1298-.1115.2323-.2407.2322-1.6804 0-2.3584-.5533-2.3584-2.2677zm3.0708-.9881c-.0468-1.223.5754-2.3737 1.6215-2.9992 1.0462-.6254 2.3488-.6254 3.3949 0 1.0462.6255 1.6684 1.7762 1.6215 2.9992 0 .2322-.0638.4249-.2948.4249h-4.3925c-.113 0-.1523.0642-.1425.1679.1089.7679.788 1.3215 1.5576 1.2698.4663.0069.9114-.196 1.2136-.5534.0937-.1324.2462-.21.4078-.2075h1.1595c.2064 0 .2948.1433.2162.3459-.6888 1.4121-2.2544 2.1609-3.7785 1.8072-1.5241-.3536-2.6051-1.7166-2.6089-3.2894zm4.6628-.5929c.0884 0 .1277-.0395.113-.1433-.1339-.7091-.7563-1.2181-1.474-1.2055-.702-.0006-1.3122.4841-1.474 1.171-.0246.0889 0 .1778.1032.1778zm3.0364 3.5572v-8.2606c-.0001-.13.1018-.2368.231-.2421h4.024c1.8376 0 3.0905 1.077 3.0905 2.8902s-1.42 2.9298-3.1789 2.9298h-2.1324c-.0649-.0068-.1293.0169-.1744.0642-.0451.0474-.066.113-.0566.1779v2.4406c-.005.1316-.1099.2371-.2407.2421h-1.3266c-.1311-.0027-.2359-.1103-.2359-.2421zm4.1666-4.1599c.3701-.0052.7227-.159.9793-.4273.2566-.2682.3958-.6285.3866-1.0006.0154-.3688-.1235-.7272-.3831-.9883-.2596-.261-.6161-.4007-.9828-.3851h-2.1472c-.1523 0-.2162.079-.2162.2322v2.3369c0 .1531.0639.2322.2162.2322zm3.7783 1.1659c-.0331-.8737.2836-1.7244.8793-2.3614s1.4205-1.0073 2.2898-1.0278c.6274.0034 1.2319.2371 1.7001.6571.113.1038.2407.0889.2407-.0642v-.1927c0-.1283.1034-.2322.2309-.2322h1.1989c.1308.005.2357.1105.2408.2421v4.2538c0 .3211.113.4644.3341.4941.1146.0023.2085.0924.2162.2075v1.1165c0 .1201-.0968.2174-.2162.2174-.8451 0-1.3414-.2421-1.6214-.7312-.0787-.1284-.1671-.1531-.2948-.0247-.5398.5587-1.2842.8696-2.0587.8597-.8696-.0255-1.6923-.4018-2.2829-1.044s-.8994-1.4963-.8568-2.37zm5.1099 0c.0483-.6345-.261-1.2427-.8008-1.5748-.5399-.3321-1.2192-.3321-1.7591 0-.5398.3321-.8491.9403-.8008 1.5748-.0483.6345.261 1.2428.8008 1.5749.5399.3321 1.2192.3321 1.7591 0 .5398-.3321.8491-.9404.8008-1.5749zm2.835 5.4643v-1.0424c.0053-.1299.1116-.2324.2408-.2323.8225.0638 1.5816-.4465 1.8376-1.2351.0431-.1653.0257-.3406-.0492-.4941l-2.3485-5.3457c-.0406-.0726-.0394-.1616.0033-.2331.0426-.0715.1201-.1145.203-.1127h1.2627c.1278 0 .2064.1038.2555.2322l1.474 3.4189c.1032.2717.2703.2569.3833 0l1.4052-3.4288c.0491-.1284.113-.2075.2408-.2075h1.2332c.0757-.004.1481.0313.1919.0934.0439.0621.053.1425.0243.2129l-2.4125 5.7657c-.8794 2.0948-1.813 2.8754-3.6801 2.8754-.0716.0044-.1416-.0223-.1923-.0733-.0508-.051-.0773-.1215-.073-.1935z" fill="#5a78ff"/><rect height="88" rx="9" stroke="#fff" stroke-width="2" width="88" x="1" y="1"/></svg>

<svg width="90" height="90" viewBox="0 0 90 90" fill="none" xmlns="http://www.w3.org/2000/svg">
<rect x="1" y="1" width="88" height="88" rx="9" fill="white"/>
<path d="M41.102 52.078C39.9427 52.0781 38.8974 51.3762 38.4532 50.2994L28.5641 26.2941C27.9591 24.8253 28.6527 23.1414 30.1133 22.5329L40.4711 18.2192C41.1725 17.927 41.9607 17.9269 42.6621 18.2191C43.3635 18.5112 43.9208 19.0716 44.2112 19.777L54.1003 43.7833C54.7043 45.2517 54.0109 46.9345 52.5511 47.5431L42.1933 51.8587C41.8474 52.0032 41.4766 52.0777 41.102 52.078ZM41.5668 19.5488C41.3932 19.549 41.2214 19.5838 41.0612 19.651L30.7029 23.9646C30.3791 24.0995 30.1219 24.3582 29.9878 24.6838C29.8537 25.0094 29.8538 25.3752 29.988 25.7008L39.8771 49.7075C40.157 50.3849 40.9293 50.7067 41.6037 50.4269L51.9615 46.1103C52.2853 45.9754 52.5425 45.7167 52.6766 45.3911C52.8107 45.0656 52.8106 44.6997 52.6764 44.3742L42.7873 20.3699C42.5826 19.8735 42.1012 19.5497 41.5668 19.5488Z" fill="#5A78FF"/>
<path style="mix-blend-mode:multiply" opacity="0.7" d="M44.8642 21.36L43.4402 21.9531L47.3556 31.4582L48.7796 30.8651L44.8642 21.36Z" fill="url(#paint0_linear_41_192)"/>
<path style="mix-blend-mode:multiply" opacity="0.7" d="M52.0184 42.78L53.4424 42.1869L49.0102 31.4275L47.5862 32.0206L52.0184 42.78Z" fill="url(#paint1_linear_41_192)"/>
<path d="M50.2202 35.6481C47.2579 36.8833 44.7846 38.5858 43.1651 40.6381L38.9897 30.4981C40.8943 28.273 43.3185 26.5584 46.0448 25.5081C49.0071 24.2729 51.9998 23.6751 54.5425 24.0234L58.7188 34.163C55.8073 33.9425 52.887 34.4528 50.2202 35.6481Z" fill="#5A78FF"/>
<g style="mix-blend-mode:multiply" opacity="0.4">
<path opacity="0.9" d="M50.2202 35.6481C47.2579 36.8833 44.7846 38.5858 43.1651 40.6381L38.9897 30.4981C40.8943 28.273 43.3185 26.5584 46.0448 25.5081C49.0071 24.2729 51.9998 23.6751 54.5425 24.0234L58.7188 34.163C55.8073 33.9425 52.887 34.4528 50.2202 35.6481Z" fill="url(#paint2_linear_41_192)"/>
<path opacity="0.7" d="M50.2202 35.6481C47.2579 36.8833 44.7846 38.5858 43.1651 40.6381L38.9897 30.4981C40.8943 28.273 43.3185 26.5584 46.0448 25.5081C49.0071 24.2729 51.9998 23.6751 54.5425 24.0234L58.7188 34.163C55.8073 33.9425 52.887 34.4528 50.2202 35.6481Z" fill="url(#paint3_linear_41_192)"/>
</g>
<path d="M51.5808 38.7394C48.3743 38.7394 45.4391 39.3624 43.1642 40.6341V30.3814C45.7705 29.059 48.6625 28.4079 51.5808 28.4867C54.7872 28.4867 57.7799 29.0845 59.9968 30.3839V40.6366C57.3911 39.3131 54.4991 38.6611 51.5808 38.7394Z" fill="#5A78FF"/>
<path d="M12.6218 68.832L15.2161 60.5862C15.2433 60.4719 15.3404 60.3882 15.4568 60.3787H16.7588C16.8756 60.3951 16.9738 60.4749 17.0143 60.5862L19.0337 65.7886C19.073 65.8923 19.1762 65.9022 19.2106 65.7886L21.2153 60.5862C21.2558 60.4749 21.354 60.3951 21.4708 60.3787H22.7728C22.8892 60.3882 22.9863 60.4719 23.0135 60.5862L25.5537 68.832C25.5836 68.8955 25.5777 68.9701 25.5383 69.0281C25.4988 69.086 25.4318 69.1186 25.3621 69.1136H23.8292C23.7194 69.1186 23.622 69.0436 23.5982 68.9357L21.9572 63.5801C21.9326 63.4764 21.8147 63.4764 21.7803 63.5801L19.815 68.8962C19.7815 69.0242 19.6665 69.1135 19.5349 69.1136H18.6456C18.5151 69.1162 18.4014 69.0248 18.3753 68.8962L16.3707 63.5801C16.3314 63.4764 16.2282 63.4764 16.2036 63.5801L14.5184 68.9357C14.4922 69.0463 14.3903 69.1215 14.2776 69.1136H12.8036C12.7346 69.118 12.6685 69.0845 12.6309 69.0262C12.5932 68.9679 12.5897 68.8936 12.6218 68.832ZM26.0647 65.8923C26.0368 64.4876 26.8568 63.2055 28.1395 62.6483C29.4223 62.0911 30.9127 62.3697 31.9107 63.3531C32.9087 64.3365 33.2157 65.8293 32.6877 67.1302C32.1596 68.431 30.9014 69.2813 29.5041 69.2816C28.5947 69.3127 27.7124 68.968 27.0626 68.3276C26.4127 67.6872 26.0521 66.8072 26.0647 65.8923ZM31.1746 65.8923C31.1211 64.9678 30.3413 64.2566 29.4211 64.2929C28.5008 64.3292 27.7788 65.0996 27.7974 66.0255C27.816 66.9514 28.5684 67.6918 29.4893 67.6907C29.9503 67.6778 30.3871 67.4809 30.7034 67.1434C31.0196 66.806 31.1892 66.3558 31.1746 65.8923ZM35.9799 68.5899C35.8521 68.4861 35.7391 68.5257 35.7391 68.7035V68.8863C35.7392 69.0163 35.6373 69.1231 35.5082 69.1284H34.3093C34.1785 69.1234 34.0736 69.0179 34.0686 68.8863V60.6257C34.0736 60.4941 34.1785 60.3887 34.3093 60.3836H35.5721C35.7012 60.3889 35.8031 60.4957 35.803 60.6257V62.9576C35.803 63.1256 35.916 63.175 36.0978 63.0466C36.5814 62.6823 37.169 62.4848 37.7733 62.4833C39.5224 62.4833 40.8638 63.9655 40.8638 65.8726C40.905 66.7443 40.5944 67.5959 40.0023 68.234C39.4103 68.8722 38.5869 69.2428 37.7192 69.2618C37.077 69.2603 36.4579 69.0211 35.9799 68.5899ZM39.1244 65.8923C39.1728 65.256 38.8626 64.6461 38.3212 64.3131C37.7798 63.98 37.0985 63.98 36.5571 64.3131C36.0157 64.6461 35.7055 65.256 35.7539 65.8923C35.7366 66.3534 35.9044 66.8021 36.2195 67.1375C36.5346 67.4729 36.9706 67.6669 37.4293 67.6759C38.3854 67.6516 39.1415 66.8537 39.1195 65.8923H39.1244ZM41.9201 60.9814C41.9201 60.4357 42.3601 59.9933 42.9028 59.9933C43.4455 59.9933 43.8855 60.4357 43.8855 60.9814C43.8855 61.5271 43.4455 61.9695 42.9028 61.9695C42.3601 61.9695 41.9201 61.5271 41.9201 60.9814ZM42.0086 68.8863V62.9082C42.0085 62.7783 42.1104 62.6714 42.2395 62.6661H43.5022C43.6331 62.6712 43.7379 62.7767 43.743 62.9082V68.8863C43.7379 69.0179 43.6331 69.1234 43.5022 69.1284H42.2395C42.1104 69.1231 42.0085 69.0163 42.0086 68.8863ZM45.1679 66.9101V60.6257C45.1678 60.4957 45.2697 60.3889 45.3988 60.3836H46.6615C46.7923 60.3887 46.8972 60.4941 46.9023 60.6257V66.9694C46.9023 67.3795 47.0792 67.6512 47.5263 67.6512C47.6592 67.6512 47.767 67.7596 47.767 67.8933V68.9456C47.7618 69.0754 47.6555 69.1779 47.5263 69.1778C45.8459 69.1778 45.1679 68.6245 45.1679 66.9101ZM48.2387 65.922C48.1919 64.699 48.8141 63.5483 49.8602 62.9228C50.9064 62.2974 52.209 62.2974 53.2551 62.9228C54.3013 63.5483 54.9235 64.699 54.8766 65.922C54.8766 66.1542 54.8128 66.3469 54.5818 66.3469H50.1893C50.0763 66.3469 50.037 66.4111 50.0468 66.5148C50.1557 67.2827 50.8348 67.8363 51.6044 67.7846C52.0707 67.7915 52.5158 67.5886 52.818 67.2312C52.9117 67.0988 53.0642 67.0212 53.2258 67.0237H54.3853C54.5917 67.0237 54.6801 67.167 54.6015 67.3696C53.9127 68.7817 52.3471 69.5305 50.823 69.1768C49.2989 68.8232 48.2179 67.4602 48.2141 65.8874L48.2387 65.922ZM52.9015 65.3291C52.9899 65.3291 53.0292 65.2896 53.0145 65.1858C52.8806 64.4767 52.2582 63.9677 51.5405 63.9803C50.8385 63.9797 50.2283 64.4644 50.0665 65.1513C50.0419 65.2402 50.0665 65.3291 50.1697 65.3291H52.9015ZM55.9379 68.8863V60.6257C55.9378 60.4957 56.0397 60.3889 56.1689 60.3836H60.1929C62.0305 60.3836 63.2834 61.4606 63.2834 63.2738C63.2834 65.087 61.8634 66.2036 60.1045 66.2036H57.9721C57.9072 66.1968 57.8428 66.2205 57.7977 66.2678C57.7526 66.3152 57.7317 66.3808 57.7411 66.4457V68.8863C57.7361 69.0179 57.6312 69.1234 57.5004 69.1284H56.1738C56.0427 69.1257 55.9379 69.0181 55.9379 68.8863ZM60.1045 64.7264C60.4746 64.7212 60.8272 64.5674 61.0838 64.2991C61.3404 64.0309 61.4796 63.6706 61.4704 63.2985C61.4858 62.9297 61.3469 62.5713 61.0873 62.3102C60.8277 62.0492 60.4712 61.9095 60.1045 61.9251H57.9573C57.805 61.9251 57.7411 62.0041 57.7411 62.1573V64.4942C57.7411 64.6473 57.805 64.7264 57.9573 64.7264H60.1045ZM63.8828 65.8923C63.8497 65.0186 64.1664 64.1679 64.7621 63.5309C65.3578 62.8939 66.1826 62.5236 67.0519 62.5031C67.6793 62.5065 68.2838 62.7402 68.752 63.1602C68.865 63.264 68.9927 63.2491 68.9927 63.096V62.9033C68.9927 62.775 69.0961 62.6711 69.2236 62.6711H70.4225C70.5533 62.6761 70.6582 62.7816 70.6633 62.9132V67.167C70.6633 67.4881 70.7763 67.6314 70.9974 67.6611C71.112 67.6634 71.2059 67.7535 71.2136 67.8686V68.9851C71.2136 69.1052 71.1168 69.2025 70.9974 69.2025C70.1523 69.2025 69.656 68.9604 69.376 68.4713C69.2973 68.3429 69.2089 68.3182 69.0812 68.4466C68.5414 69.0053 67.797 69.3162 67.0225 69.3063C66.1529 69.2808 65.3302 68.9045 64.7396 68.2623C64.149 67.6201 63.8402 66.766 63.8828 65.8923ZM68.9927 65.8923C69.041 65.2578 68.7317 64.6496 68.1919 64.3175C67.652 63.9854 66.9727 63.9854 66.4328 64.3175C65.893 64.6496 65.5837 65.2578 65.632 65.8923C65.5837 66.5268 65.893 67.1351 66.4328 67.4672C66.9727 67.7993 67.652 67.7993 68.1919 67.4672C68.7317 67.1351 69.041 66.5268 68.9927 65.8923ZM71.8277 71.3566V70.3142C71.833 70.1843 71.9393 70.0818 72.0685 70.0819C72.891 70.1457 73.6501 69.6354 73.9061 68.8468C73.9492 68.6815 73.9318 68.5062 73.8569 68.3527L71.5084 63.007C71.4678 62.9344 71.469 62.8454 71.5117 62.7739C71.5543 62.7024 71.6318 62.6594 71.7147 62.6612H72.9774C73.1052 62.6612 73.1838 62.765 73.2329 62.8934L74.7069 66.3123C74.8101 66.584 74.9772 66.5692 75.0902 66.3123L76.4954 62.8835C76.5445 62.7551 76.6084 62.676 76.7362 62.676H77.9694C78.0451 62.672 78.1175 62.7073 78.1613 62.7694C78.2052 62.8315 78.2143 62.9119 78.1856 62.9823L75.7731 68.748C74.8937 70.8428 73.9601 71.6234 72.093 71.6234C72.0214 71.6278 71.9514 71.6011 71.9007 71.5501C71.8499 71.4991 71.8234 71.4286 71.8277 71.3566Z" fill="#5A78FF"/>
<rect x="1" y="1" width="88" height="88" rx="9" stroke="white" stroke-width="2"/>
<defs>
<linearGradient id="paint0_linear_41_192" x1="47.1101" y1="28.8881" x2="46.4638" y2="21.3887" gradientUnits="userSpaceOnUse">
<stop stop-color="#504678"/>
<stop offset="0.302" stop-color="#504678" stop-opacity="0.616"/>
<stop offset="0.608" stop-color="#504678" stop-opacity="0.283"/>
<stop offset="0.852" stop-color="#504678" stop-opacity="0.076"/>
<stop offset="1" stop-color="#504678" stop-opacity="0"/>
</linearGradient>
<linearGradient id="paint1_linear_41_192" x1="49.3798" y1="34.2986" x2="49.7852" y2="42.7021" gradientUnits="userSpaceOnUse">
<stop stop-color="#504678"/>
<stop offset="0.302" stop-color="#504678" stop-opacity="0.616"/>
<stop offset="0.608" stop-color="#504678" stop-opacity="0.283"/>
<stop offset="0.852" stop-color="#504678" stop-opacity="0.076"/>
<stop offset="1" stop-color="#504678" stop-opacity="0"/>
</linearGradient>
<linearGradient id="paint2_linear_41_192" x1="41.693" y1="35.0127" x2="49.5444" y2="29.6898" gradientUnits="userSpaceOnUse">
<stop stop-color="#504678"/>
<stop offset="0.179" stop-color="#504678" stop-opacity="0.872"/>
<stop offset="0.526" stop-color="#504678" stop-opacity="0.536"/>
<stop offset="1" stop-color="#504678" stop-opacity="0"/>
</linearGradient>
<linearGradient id="paint3_linear_41_192" x1="48.4053" y1="29.7699" x2="48.0544" y2="26.9792" gradientUnits="userSpaceOnUse">
<stop stop-color="#504678"/>
<stop offset="0.643" stop-color="#504678" stop-opacity="0.332"/>
<stop offset="1" stop-color="#504678" stop-opacity="0"/>
</linearGradient>
</defs>
</svg>
